components/icon/svg/24/action_legal.svg

<?xml version="1.0" encoding="UTF-8"?>
<svg width="24px" height="24px" viewBox="0 0 24 24" version="1.1" xmlns="http://www.w3.org/2000/svg" xmlns:xlink="http://www.w3.org/1999/xlink">
    <!-- Generator: Sketch 64 (93537) - https://sketch.com -->
    <title>ic-db_action_legal_24</title>
    <desc>Created with Sketch.</desc>
    <g id="Symbols:Icon" stroke="none" stroke-width="1" fill="none" fill-rule="evenodd">
        <g id="24dp-Icon/Action/Legal" fill="#282D37">
            <path d="M12.7229332,4 C14.0551022,4 15.1325737,4.23858885 15.1325737,5.3108004 C15.1325737,5.74006308 14.8572473,6.11689046 14.3174431,6.11689046 C13.889742,6.11689046 13.3376919,5.88915029 12.7036192,5.88915029 C11.5663156,5.88915029 10.9108743,6.27468949 10.9108743,7.02653613 C10.9108743,9.16627457 16.2313317,8.60723862 16.2313317,12.1541828 C16.2506456,13.2915686 15.5373447,14.3325491 14.4578185,14.7373201 C14.8819856,15.2771243 15.0554823,15.9325656 15.0554823,16.6072386 C15.0554823,18.766291 13.7252858,20 11.2578678,20 C9.94254712,20 8.30842308,19.6871141 8.30842308,18.4963889 C8.33875008,18.1029598 8.61843243,17.7570347 9.10103447,17.7570347 C9.39756515,17.7570347 10.3505234,18.1108497 11.1807764,18.1108497 C12.5108907,18.1108497 13.1084724,17.7253105 13.1084724,16.8578268 C13.1084724,14.2554577 7.76870108,15.2771243 7.76870108,11.5759151 C7.74938713,10.3999836 8.40482843,9.32045737 9.44580892,8.81928107 C9.15667506,8.33733652 9.00241007,7.75906882 9.02172402,7.20003287 C9.02172402,5.1951633 10.3325244,4 12.7229332,4 Z M10.6217405,9.95658472 C10.0240766,10.1687094 9.58815679,10.7265947 9.58075996,11.3638727 C9.57221252,12.0935288 9.92775346,12.3469935 13.0699267,13.6385621 C13.9373282,13.3494283 14.3229496,12.9445751 14.3229496,12.3469935 C14.3229496,11.6723204 13.9566422,11.460278 10.6217405,9.95658472 Z" id="🎨-Color"></path>
        </g>
    </g>
</svg>

<svg width="24" height="24" xmlns="http://www.w3.org/2000/svg"><path d="M12.723 4c1.332 0 2.41.239 2.41 1.31 0 .43-.276.807-.816.807-.427 0-.98-.228-1.613-.228-1.138 0-1.793.386-1.793 1.138 0 2.14 5.32 1.58 5.32 5.127a2.726 2.726 0 01-1.773 2.583c.424.54.597 1.196.597 1.87 0 2.16-1.33 3.393-3.797 3.393-1.315 0-2.95-.313-2.95-1.504.03-.393.31-.739.793-.739.297 0 1.25.354 2.08.354 1.33 0 1.927-.386 1.927-1.253 0-2.603-5.34-1.58-5.34-5.282a2.998 2.998 0 011.678-2.757A2.997 2.997 0 019.022 7.2c0-2.005 1.31-3.2 3.7-3.2zm-2.101 5.957c-.598.212-1.034.77-1.041 1.407-.009.73.347.983 3.489 2.275.867-.29 1.253-.694 1.253-1.292 0-.675-.366-.887-3.701-2.39z" fill="#282D37" fill-rule="evenodd"/></svg>
